X: 33
T: Renzou qianli zhe huilai
L: 1/8
M: 2/4
K: Bb
z F F b [I:setbarnb 1]| 
f3d | 
b d (3c B c | 
d d/ f/ B G/ F/ | 
c4 | 
z F F b | 
f3d | 
b d (3c B c | 
d d/ f/ c/ B/ G/ B/ | 
F4 |]

@@@ Tune index: 8907
